X: 26
T:Bapardes Leyad
C:Nurit Hirsh 1983
O:Israel
F: http://www.youtube.com/watch?v=8E2CFQqNoHA
P:ABCDC
L:1/8
M:4/4
Q:1/4=120
K:Bm
%%MIDI gchord zzczzzcz
P:A
z fgf g4           |g4 g4-           |gcde f4              |f4 f4-      |\
fBcd B3d           | c3 d  B4        |z4   z4              |
P:B
"Bm"Bcdc BAGF      |"G"GABA "Em"GFED |"Bm"F3 F  "Em"E2 FE  | "Bm"D4-  D4|\
Bcdc BAGF          |"G"GABA "Em"GFED |"F#m"A3 A "G" G2 AG  | "Bm"F4- F4 |
P:C
"F#m"c3 d  "A"e2 c2| "Bm"B^ABc  d2 B2| "F#m"A3 B  cA BG    | "Bm"F4- F4 |\
"F#m"c3 d  "A"e2 c2| "Bm"Bdfd  B4    | "C"=c3B  "F#"^A2 ^GA| "Bm"B4- B4 |
P:D
"Bm"F4- F4         | "G"G3 F  "Em"E4 | "F#m"A3 B  AGGF     | "Bm"F4- F4 |\
"F#"^A3B  c2F2     |  "Bm"B3c  d2 B2 | "Bm"f2 ^e2  d2 cB   |  "F#m"c4 z4|



